X: 206
T:Valiant Soldier. JC.210
M:2/4
L:1/8
Q:140
S:John Clare,Poet,Helpstone (1793-1864)
R:Air
O:England210
A:Northamptonshire
N:
Z:vmp.P. Headford
K:D
d|fff2|eg dc|B3f|aab2|af gf/e/|f3:|!
|:f|fad2|cB ef|g2fe|fd cA|de fg|b>a ba|fedc|d3:|]
